src/assets/graphics/data-unavailable.svg

<svg height="125" viewBox="0 0 957 125" width="957" xmlns="http://www.w3.org/2000/svg"><g fill="none" fill-rule="evenodd" transform="translate(1 1)"><g stroke="#e2e2e2"><g transform="translate(0 81)"><g fill="#fff" fill-opacity=".104" stroke-width="2"><circle cx="10.369" cy="31.872" r="9.687"/><circle cx="40.5" cy="31.872" r="9.687"/><circle cx="70.631" cy="31.872" r="9.687"/><circle cx="100.762" cy="31.872" r="9.687"/><circle cx="130.893" cy="31.872" r="9.687"/><circle cx="161.024" cy="31.872" r="9.687"/><circle cx="191.155" cy="31.872" r="9.687"/><circle cx="221.286" cy="31.872" r="9.687"/><circle cx="251.417" cy="31.872" r="9.687"/><circle cx="281.548" cy="31.872" r="9.687"/><circle cx="311.679" cy="31.872" r="9.687"/><circle cx="341.811" cy="31.872" r="9.687"/><circle cx="371.942" cy="31.872" r="9.687"/><circle cx="402.073" cy="31.872" r="9.687"/><circle cx="432.204" cy="31.872" r="9.687"/><circle cx="462.335" cy="31.872" r="9.687"/><circle cx="492.466" cy="31.872" r="9.687"/><circle cx="522.597" cy="31.872" r="9.687"/><circle cx="552.728" cy="31.872" r="9.687"/><circle cx="673.252" cy="31.872" r="9.687"/><circle cx="703.383" cy="31.872" r="9.687"/><circle cx="733.514" cy="31.872" r="9.687"/><circle cx="763.645" cy="31.872" r="9.687"/><circle cx="793.777" cy="31.872" r="9.687"/><circle cx="823.908" cy="31.872" r="9.687"/><circle cx="854.039" cy="31.872" r="9.687"/><circle cx="884.17" cy="31.872" r="9.687"/><circle cx="914.301" cy="31.872" r="9.687"/></g><path d="m914.5 22.5v-21.02271555" stroke-linecap="square"/><circle cx="944.432" cy="31.872" fill="#fff" fill-opacity=".104" r="9.687" stroke-width="2"/><circle cx="582.859" cy="31.872" fill="#fff" fill-opacity=".104" r="9.687" stroke-width="2"/><circle cx="612.99" cy="31.872" fill="#fff" fill-opacity=".104" r="9.687" stroke-width="2"/><circle cx="643.121" cy="31.872" fill="#fff" fill-opacity=".104" r="9.687" stroke-width="2"/><path d="m70.515625 21.9958926v-21.02271557m30 21.02271557v-21.02271557m31 21.02271557v-21.02271557" stroke-linecap="square"/><path d="m10.016 22.698v-21.983h934.024v21.983"/><path d="m40.515625 21.9958926v-21.02271557" stroke-linecap="square"/></g><circle cx="477.5" cy="18.5" fill="#fff" fill-opacity=".104" r="18.5" stroke-width="2"/><circle cx="535.5" cy="18.5" fill="#fff" fill-opacity=".104" r="18.5" stroke-width="2"/><circle cx="420.5" cy="18.5" fill="#fff" fill-opacity=".104" r="18.5" stroke-width="2"/><path d="m160.5 102.5v-21.0227155m31 21.0227155v-21.0227155m30 21.0227155v-21.0227155m30 21.0227155v-21.0227155m31 21.0227155v-21.0227155m29 21.0227155v-21.0227155m30 21.0227155v-21.0227155m30 21.0227155v-21.0227155m30 21.0227155v-21.0227155m31 21.0227155v-21.0227155m30 21.0227155v-21.0227155m15-1.9772845v-21.0227155m-57.5 0h116m-58.5-.9772845v-21.0227155m-57 21.0227155v-21.0227155m116 21.0227155v-21.0227155m-44 66.0227155v-21.0227155m30 21.0227155v-21.0227155m30 21.0227155v-21.0227155m30 21.0227155v-21.0227155m30 21.0227155v-21.0227155m31 21.0227155v-21.0227155m30 21.0227155v-21.0227155m30 21.0227155v-21.0227155m30 21.0227155v-21.0227155m30 21.0227155v-21.0227155m30 21.0227155v-21.0227155m31 21.0227155v-21.0227155m30 21.0227155v-21.0227155m30 21.0227155v-21.0227155" stroke-linecap="square"/></g><circle cx="535.713" cy="18.713" fill="#e000cf" r="12.713"/><circle cx="420.713" cy="18.713" fill="#7b1173" r="12.713"/><circle cx="477.213" cy="18.213" fill="#ff4092" r="12.213"/><g stroke="#131212" transform="translate(0 81)"><g fill="#fff" fill-opacity=".104" stroke-width="2"><circle cx="10.369" cy="31.872" r="9.687"/><circle cx="40.5" cy="31.872" r="9.687"/><circle cx="70.631" cy="31.872" r="9.687"/><circle cx="100.762" cy="31.872" r="9.687"/><circle cx="130.893" cy="31.872" r="9.687"/><circle cx="161.024" cy="31.872" r="9.687"/><circle cx="191.155" cy="31.872" r="9.687"/><circle cx="221.286" cy="31.872" r="9.687"/><circle cx="251.417" cy="31.872" r="9.687"/><circle cx="281.548" cy="31.872" r="9.687"/><circle cx="311.679" cy="31.872" r="9.687"/><circle cx="341.811" cy="31.872" r="9.687"/><circle cx="371.942" cy="31.872" r="9.687"/><circle cx="402.073" cy="31.872" r="9.687"/><circle cx="432.204" cy="31.872" r="9.687"/><circle cx="462.335" cy="31.872" r="9.687"/><circle cx="492.466" cy="31.872" r="9.687"/><circle cx="522.597" cy="31.872" r="9.687"/><circle cx="552.728" cy="31.872" r="9.687"/><circle cx="673.252" cy="31.872" r="9.687"/><circle cx="703.383" cy="31.872" r="9.687"/><circle cx="733.514" cy="31.872" r="9.687"/><circle cx="763.645" cy="31.872" r="9.687"/><circle cx="793.777" cy="31.872" r="9.687"/><circle cx="823.908" cy="31.872" r="9.687"/><circle cx="854.039" cy="31.872" r="9.687"/><circle cx="884.17" cy="31.872" r="9.687"/><circle cx="914.301" cy="31.872" r="9.687"/></g><path d="m914.5 22.5v-21.02271555" stroke-linecap="square"/><circle cx="944.432" cy="31.872" fill="#fff" fill-opacity=".104" r="9.687" stroke-width="2"/><circle cx="582.859" cy="31.872" fill="#fff" fill-opacity=".104" r="9.687" stroke-width="2"/><circle cx="612.99" cy="31.872" fill="#fff" fill-opacity=".104" r="9.687" stroke-width="2"/><circle cx="643.121" cy="31.872" fill="#fff" fill-opacity=".104" r="9.687" stroke-width="2"/><path d="m70.515625 21.9958926v-21.02271557m30 21.02271557v-21.02271557m31 21.02271557v-21.02271557" stroke-linecap="square"/><path d="m10.016 22.698v-21.983h934.024v21.983"/><path d="m40.515625 21.9958926v-21.02271557" stroke-linecap="square"/></g><circle cx="477.5" cy="18.5" fill="#fff" fill-opacity=".104" r="18.5" stroke="#131212" stroke-width="2"/><circle cx="535.5" cy="18.5" fill="#fff" fill-opacity=".104" r="18.5" stroke="#131212" stroke-width="2"/><circle cx="420.5" cy="18.5" fill="#fff" fill-opacity=".104" r="18.5" stroke="#131212" stroke-width="2"/><path d="m160.5 102.5v-21.0227155m31 21.0227155v-21.0227155m30 21.0227155v-21.0227155m30 21.0227155v-21.0227155m31 21.0227155v-21.0227155m29 21.0227155v-21.0227155m30 21.0227155v-21.0227155m30 21.0227155v-21.0227155m30 21.0227155v-21.0227155m31 21.0227155v-21.0227155m30 21.0227155v-21.0227155m15-1.9772845v-21.0227155m-57.5 0h116m-58.5-.9772845v-21.0227155m-57 21.0227155v-21.0227155m116 21.0227155v-21.0227155m-44 66.0227155v-21.0227155m30 21.0227155v-21.0227155m30 21.0227155v-21.0227155m30 21.0227155v-21.0227155m30 21.0227155v-21.0227155m31 21.0227155v-21.0227155m30 21.0227155v-21.0227155m30 21.0227155v-21.0227155m30 21.0227155v-21.0227155m30 21.0227155v-21.0227155m30 21.0227155v-21.0227155m31 21.0227155v-21.0227155m30 21.0227155v-21.0227155m30 21.0227155v-21.0227155" stroke="#131212" stroke-linecap="square"/></g></svg>

<svg xmlns="http://www.w3.org/2000/svg" width="957" height="125" viewBox="0 0 957 125">
  <g fill="none" fill-rule="evenodd" transform="translate(1 1)">
    <g stroke="#E2E2E2" transform="translate(0 81)">
      <circle cx="10.369" cy="31.872" r="9.687" fill="#FFF" fill-opacity=".104" stroke-width="2"/>
      <circle cx="40.5" cy="31.872" r="9.687" fill="#FFF" fill-opacity=".104" stroke-width="2"/>
      <circle cx="70.631" cy="31.872" r="9.687" fill="#FFF" fill-opacity=".104" stroke-width="2"/>
      <circle cx="100.762" cy="31.872" r="9.687" fill="#FFF" fill-opacity=".104" stroke-width="2"/>
      <circle cx="130.893" cy="31.872" r="9.687" fill="#FFF" fill-opacity=".104" stroke-width="2"/>
      <circle cx="161.024" cy="31.872" r="9.687" fill="#FFF" fill-opacity=".104" stroke-width="2"/>
      <circle cx="191.155" cy="31.872" r="9.687" fill="#FFF" fill-opacity=".104" stroke-width="2"/>
      <circle cx="221.286" cy="31.872" r="9.687" fill="#FFF" fill-opacity=".104" stroke-width="2"/>
      <circle cx="251.417" cy="31.872" r="9.687" fill="#FFF" fill-opacity=".104" stroke-width="2"/>
      <circle cx="281.548" cy="31.872" r="9.687" fill="#FFF" fill-opacity=".104" stroke-width="2"/>
      <circle cx="311.679" cy="31.872" r="9.687" fill="#FFF" fill-opacity=".104" stroke-width="2"/>
      <circle cx="341.811" cy="31.872" r="9.687" fill="#FFF" fill-opacity=".104" stroke-width="2"/>
      <circle cx="371.942" cy="31.872" r="9.687" fill="#FFF" fill-opacity=".104" stroke-width="2"/>
      <circle cx="402.073" cy="31.872" r="9.687" fill="#FFF" fill-opacity=".104" stroke-width="2"/>
      <circle cx="432.204" cy="31.872" r="9.687" fill="#FFF" fill-opacity=".104" stroke-width="2"/>
      <circle cx="462.335" cy="31.872" r="9.687" fill="#FFF" fill-opacity=".104" stroke-width="2"/>
      <circle cx="492.466" cy="31.872" r="9.687" fill="#FFF" fill-opacity=".104" stroke-width="2"/>
      <circle cx="522.597" cy="31.872" r="9.687" fill="#FFF" fill-opacity=".104" stroke-width="2"/>
      <circle cx="552.728" cy="31.872" r="9.687" fill="#FFF" fill-opacity=".104" stroke-width="2"/>
      <circle cx="673.252" cy="31.872" r="9.687" fill="#FFF" fill-opacity=".104" stroke-width="2"/>
      <circle cx="703.383" cy="31.872" r="9.687" fill="#FFF" fill-opacity=".104" stroke-width="2"/>
      <circle cx="733.514" cy="31.872" r="9.687" fill="#FFF" fill-opacity=".104" stroke-width="2"/>
      <circle cx="763.645" cy="31.872" r="9.687" fill="#FFF" fill-opacity=".104" stroke-width="2"/>
      <circle cx="793.777" cy="31.872" r="9.687" fill="#FFF" fill-opacity=".104" stroke-width="2"/>
      <circle cx="823.908" cy="31.872" r="9.687" fill="#FFF" fill-opacity=".104" stroke-width="2"/>
      <circle cx="854.039" cy="31.872" r="9.687" fill="#FFF" fill-opacity=".104" stroke-width="2"/>
      <circle cx="884.17" cy="31.872" r="9.687" fill="#FFF" fill-opacity=".104" stroke-width="2"/>
      <circle cx="914.301" cy="31.872" r="9.687" fill="#FFF" fill-opacity=".104" stroke-width="2"/>
      <path stroke-linecap="square" d="M914.5,22.5 L914.5,1.47728445"/>
      <circle cx="944.432" cy="31.872" r="9.687" fill="#FFF" fill-opacity=".104" stroke-width="2"/>
      <circle cx="582.859" cy="31.872" r="9.687" fill="#FFF" fill-opacity=".104" stroke-width="2"/>
      <circle cx="612.99" cy="31.872" r="9.687" fill="#FFF" fill-opacity=".104" stroke-width="2"/>
      <circle cx="643.121" cy="31.872" r="9.687" fill="#FFF" fill-opacity=".104" stroke-width="2"/>
      <path stroke-linecap="square" d="M70.515625 21.9958926L70.515625.973177029M100.515625 21.9958926L100.515625.973177029M131.515625 21.9958926L131.515625.973177029"/>
      <polyline points="10.016 22.698 10.016 .715 944.04 .715 944.04 22.698"/>
      <path stroke-linecap="square" d="M40.515625,21.9958926 L40.515625,0.973177029"/>
    </g>
    <circle cx="477.5" cy="18.5" r="18.5" fill="#FFF" fill-opacity=".104" stroke="#E2E2E2" stroke-width="2"/>
    <circle cx="535.5" cy="18.5" r="18.5" fill="#FFF" fill-opacity=".104" stroke="#E2E2E2" stroke-width="2"/>
    <circle cx="420.5" cy="18.5" r="18.5" fill="#FFF" fill-opacity=".104" stroke="#E2E2E2" stroke-width="2"/>
    <path stroke="#E2E2E2" stroke-linecap="square" d="M160.5 102.5L160.5 81.4772845M191.5 102.5L191.5 81.4772845M221.5 102.5L221.5 81.4772845M251.5 102.5L251.5 81.4772845M282.5 102.5L282.5 81.4772845M311.5 102.5L311.5 81.4772845M341.5 102.5L341.5 81.4772845M371.5 102.5L371.5 81.4772845M401.5 102.5L401.5 81.4772845M432.5 102.5L432.5 81.4772845M462.5 102.5L462.5 81.4772845M477.5 79.5L477.5 58.4772845M420 58.4772845L536 58.4772845M477.5 57.5L477.5 36.4772845M420.5 57.5L420.5 36.4772845M536.5 57.5L536.5 36.4772845M492.5 102.5L492.5 81.4772845M522.5 102.5L522.5 81.4772845M552.5 102.5L552.5 81.4772845M582.5 102.5L582.5 81.4772845M612.5 102.5L612.5 81.4772845M643.5 102.5L643.5 81.4772845M673.5 102.5L673.5 81.4772845M703.5 102.5L703.5 81.4772845M733.5 102.5L733.5 81.4772845M763.5 102.5L763.5 81.4772845M793.5 102.5L793.5 81.4772845M824.5 102.5L824.5 81.4772845M854.5 102.5L854.5 81.4772845M884.5 102.5L884.5 81.4772845"/>
    <circle cx="535.713" cy="18.713" r="12.713" fill="#E000CF"/>
    <circle cx="420.713" cy="18.713" r="12.713" fill="#7B1173"/>
    <circle cx="477.213" cy="18.213" r="12.213" fill="#FF4092"/>
    <g stroke="#131212" transform="translate(0 81)">
      <circle cx="10.369" cy="31.872" r="9.687" fill="#FFF" fill-opacity=".104" stroke-width="2"/>
      <circle cx="40.5" cy="31.872" r="9.687" fill="#FFF" fill-opacity=".104" stroke-width="2"/>
      <circle cx="70.631" cy="31.872" r="9.687" fill="#FFF" fill-opacity=".104" stroke-width="2"/>
      <circle cx="100.762" cy="31.872" r="9.687" fill="#FFF" fill-opacity=".104" stroke-width="2"/>
      <circle cx="130.893" cy="31.872" r="9.687" fill="#FFF" fill-opacity=".104" stroke-width="2"/>
      <circle cx="161.024" cy="31.872" r="9.687" fill="#FFF" fill-opacity=".104" stroke-width="2"/>
      <circle cx="191.155" cy="31.872" r="9.687" fill="#FFF" fill-opacity=".104" stroke-width="2"/>
      <circle cx="221.286" cy="31.872" r="9.687" fill="#FFF" fill-opacity=".104" stroke-width="2"/>
      <circle cx="251.417" cy="31.872" r="9.687" fill="#FFF" fill-opacity=".104" stroke-width="2"/>
      <circle cx="281.548" cy="31.872" r="9.687" fill="#FFF" fill-opacity=".104" stroke-width="2"/>
      <circle cx="311.679" cy="31.872" r="9.687" fill="#FFF" fill-opacity=".104" stroke-width="2"/>
      <circle cx="341.811" cy="31.872" r="9.687" fill="#FFF" fill-opacity=".104" stroke-width="2"/>
      <circle cx="371.942" cy="31.872" r="9.687" fill="#FFF" fill-opacity=".104" stroke-width="2"/>
      <circle cx="402.073" cy="31.872" r="9.687" fill="#FFF" fill-opacity=".104" stroke-width="2"/>
      <circle cx="432.204" cy="31.872" r="9.687" fill="#FFF" fill-opacity=".104" stroke-width="2"/>
      <circle cx="462.335" cy="31.872" r="9.687" fill="#FFF" fill-opacity=".104" stroke-width="2"/>
      <circle cx="492.466" cy="31.872" r="9.687" fill="#FFF" fill-opacity=".104" stroke-width="2"/>
      <circle cx="522.597" cy="31.872" r="9.687" fill="#FFF" fill-opacity=".104" stroke-width="2"/>
      <circle cx="552.728" cy="31.872" r="9.687" fill="#FFF" fill-opacity=".104" stroke-width="2"/>
      <circle cx="673.252" cy="31.872" r="9.687" fill="#FFF" fill-opacity=".104" stroke-width="2"/>
      <circle cx="703.383" cy="31.872" r="9.687" fill="#FFF" fill-opacity=".104" stroke-width="2"/>
      <circle cx="733.514" cy="31.872" r="9.687" fill="#FFF" fill-opacity=".104" stroke-width="2"/>
      <circle cx="763.645" cy="31.872" r="9.687" fill="#FFF" fill-opacity=".104" stroke-width="2"/>
      <circle cx="793.777" cy="31.872" r="9.687" fill="#FFF" fill-opacity=".104" stroke-width="2"/>
      <circle cx="823.908" cy="31.872" r="9.687" fill="#FFF" fill-opacity=".104" stroke-width="2"/>
      <circle cx="854.039" cy="31.872" r="9.687" fill="#FFF" fill-opacity=".104" stroke-width="2"/>
      <circle cx="884.17" cy="31.872" r="9.687" fill="#FFF" fill-opacity=".104" stroke-width="2"/>
      <circle cx="914.301" cy="31.872" r="9.687" fill="#FFF" fill-opacity=".104" stroke-width="2"/>
      <path stroke-linecap="square" d="M914.5,22.5 L914.5,1.47728445"/>
      <circle cx="944.432" cy="31.872" r="9.687" fill="#FFF" fill-opacity=".104" stroke-width="2"/>
      <circle cx="582.859" cy="31.872" r="9.687" fill="#FFF" fill-opacity=".104" stroke-width="2"/>
      <circle cx="612.99" cy="31.872" r="9.687" fill="#FFF" fill-opacity=".104" stroke-width="2"/>
      <circle cx="643.121" cy="31.872" r="9.687" fill="#FFF" fill-opacity=".104" stroke-width="2"/>
      <path stroke-linecap="square" d="M70.515625 21.9958926L70.515625.973177029M100.515625 21.9958926L100.515625.973177029M131.515625 21.9958926L131.515625.973177029"/>
      <polyline points="10.016 22.698 10.016 .715 944.04 .715 944.04 22.698"/>
      <path stroke-linecap="square" d="M40.515625,21.9958926 L40.515625,0.973177029"/>
    </g>
    <circle cx="477.5" cy="18.5" r="18.5" fill="#FFF" fill-opacity=".104" stroke="#131212" stroke-width="2"/>
    <circle cx="535.5" cy="18.5" r="18.5" fill="#FFF" fill-opacity=".104" stroke="#131212" stroke-width="2"/>
    <circle cx="420.5" cy="18.5" r="18.5" fill="#FFF" fill-opacity=".104" stroke="#131212" stroke-width="2"/>
    <path stroke="#131212" stroke-linecap="square" d="M160.5 102.5L160.5 81.4772845M191.5 102.5L191.5 81.4772845M221.5 102.5L221.5 81.4772845M251.5 102.5L251.5 81.4772845M282.5 102.5L282.5 81.4772845M311.5 102.5L311.5 81.4772845M341.5 102.5L341.5 81.4772845M371.5 102.5L371.5 81.4772845M401.5 102.5L401.5 81.4772845M432.5 102.5L432.5 81.4772845M462.5 102.5L462.5 81.4772845M477.5 79.5L477.5 58.4772845M420 58.4772845L536 58.4772845M477.5 57.5L477.5 36.4772845M420.5 57.5L420.5 36.4772845M536.5 57.5L536.5 36.4772845M492.5 102.5L492.5 81.4772845M522.5 102.5L522.5 81.4772845M552.5 102.5L552.5 81.4772845M582.5 102.5L582.5 81.4772845M612.5 102.5L612.5 81.4772845M643.5 102.5L643.5 81.4772845M673.5 102.5L673.5 81.4772845M703.5 102.5L703.5 81.4772845M733.5 102.5L733.5 81.4772845M763.5 102.5L763.5 81.4772845M793.5 102.5L793.5 81.4772845M824.5 102.5L824.5 81.4772845M854.5 102.5L854.5 81.4772845M884.5 102.5L884.5 81.4772845"/>
  </g>
</svg>
